X:300
T: Miko Russell's Favorite
S: "Treoir"
Z: B.Black
M: 4/4
L: 1/8
R: reel
K: G
Bd | d2 de dBAG | EAAG A2 Bd | d2 eg dBAG |1\
EGGF G2 :|2 EGGF G3 z ||
g2 ag edBd | eaab agef | g2 ag ed (3Bcd |\
egfa g3 z |
g2 ag edBd | eaab agef | gbaf gfed |\
(3Bcd ef gedB ||
